public/svg/different/write.svg

<svg width="133" height="78" viewBox="0 0 133 78" fill="none" xmlns="http://www.w3.org/2000/svg">
<path fill-rule="evenodd" clip-rule="evenodd" d="M111.848 20.5059C111.848 21.8866 110.728 23.0059 109.348 23.0059L83.3477 23.0059C81.9669 23.0059 80.8477 21.8866 80.8477 20.5059C80.8477 19.1251 81.9669 18.0059 83.3477 18.0059L109.348 18.0059C110.728 18.0059 111.848 19.1251 111.848 20.5059Z" fill="#A4BA04"/>
<path fill-rule="evenodd" clip-rule="evenodd" d="M105.848 33.5059C105.848 34.8866 104.728 36.0059 103.348 36.0059L77.3477 36.0059C75.9669 36.0059 74.8477 34.8866 74.8477 33.5059C74.8477 32.1251 75.9669 31.0059 77.3477 31.0059L103.348 31.0059C104.728 31.0059 105.848 32.1251 105.848 33.5059Z" fill="#A4BA04"/>
<path fill-rule="evenodd" clip-rule="evenodd" d="M99.8477 46.5059C99.8477 47.8866 98.7284 49.0059 97.3477 49.0059L71.3477 49.0059C69.9669 49.0059 68.8477 47.8866 68.8477 46.5059C68.8477 45.1251 69.9669 44.0059 71.3477 44.0059L97.3477 44.0059C98.7284 44.0059 99.8477 45.1251 99.8477 46.5059Z" fill="#A4BA04"/>
<path fill-rule="evenodd" clip-rule="evenodd" d="M76.0461 6.98494C76.4486 6.08512 77.3424 5.50586 78.3281 5.50586H127.828C128.675 5.50586 129.465 5.93507 129.926 6.64613C130.387 7.35719 130.456 8.2533 130.11 9.02677L104.61 66.0268C104.208 66.9266 103.314 67.5059 102.328 67.5059H52.8281C51.9808 67.5059 51.1911 67.0766 50.7302 66.3656C50.2694 65.6545 50.2001 64.7584 50.5461 63.9849L76.0461 6.98494ZM79.9485 10.5059L56.6853 62.5059H100.708L123.971 10.5059H79.9485Z" fill="#434343"/>
<path fill-rule="evenodd" clip-rule="evenodd" d="M131.027 26.673C132.302 27.2035 132.905 28.6669 132.375 29.9417L113.031 76.4241C112.643 77.3562 111.732 77.9636 110.723 77.9636H65.1055C63.7248 77.9636 62.6055 76.8443 62.6055 75.4636C62.6055 74.0828 63.7248 72.9636 65.1055 72.9636H109.055L127.758 28.0206C128.289 26.7459 129.752 26.1425 131.027 26.673Z" fill="#434343"/>
<path fill-rule="evenodd" clip-rule="evenodd" d="M54.815 46.517C54.0339 47.298 52.7676 47.2979 51.9866 46.5169L50.5728 45.103L39.5028 42.5503C39.1374 42.466 38.8031 42.2808 38.538 42.0157L9.71188 13.1898C8.93083 12.4088 8.93083 11.1424 9.71188 10.3614C10.4929 9.58035 11.7593 9.58035 12.5403 10.3614L39.9522 37.773L46.0713 31.654L20.0736 5.65656L18.4283 7.30187L39.8607 28.7341C40.6417 29.5151 40.6417 30.7814 39.8607 31.5625C39.0796 32.3435 37.8133 32.3435 37.0322 31.5625L14.1856 8.71608C13.4046 7.93504 13.4046 6.66871 14.1856 5.88767L18.6594 1.41394C19.4405 0.632896 20.7068 0.632896 21.4878 1.41394L50.3139 30.2398C50.5791 30.5049 50.7643 30.8392 50.8486 31.2046L53.4013 42.2746L54.8151 43.6886C55.5961 44.4697 55.5961 45.736 54.815 46.517ZM48.9137 40.6155L47.7618 35.6203L43.9185 39.4636L48.9137 40.6155Z" fill="#F55E21"/>
<path fill-rule="evenodd" clip-rule="evenodd" d="M1.41422 14.0001C0.633167 13.2191 0.633167 11.9528 1.41422 11.1717L10.2515 2.3345C11.0326 1.55345 12.2989 1.55345 13.08 2.3345C13.861 3.11554 13.861 4.38187 13.08 5.16291L5.65688 12.5859L30.8819 37.8107C31.6629 38.5918 31.6629 39.8581 30.8819 40.6392C30.1008 41.4202 28.8345 41.4202 28.0534 40.6392L1.41422 14.0001Z" fill="#F55E21"/>
</svg>

<svg width="133" height="78" fill="none" xmlns="http://www.w3.org/2000/svg"><path fill-rule="evenodd" clip-rule="evenodd" d="M111.848 20.506a2.5 2.5 0 01-2.5 2.5h-26a2.5 2.5 0 110-5h26a2.5 2.5 0 012.5 2.5zm-6 13a2.5 2.5 0 01-2.5 2.5h-26a2.5 2.5 0 110-5h26a2.5 2.5 0 012.5 2.5zm-6 13a2.5 2.5 0 01-2.5 2.5h-26a2.5 2.5 0 110-5h26a2.5 2.5 0 012.5 2.5z" fill="#A4BA04"/><path fill-rule="evenodd" clip-rule="evenodd" d="M76.046 6.985a2.5 2.5 0 012.282-1.48h49.5a2.5 2.5 0 012.282 3.522l-25.5 57a2.5 2.5 0 01-2.282 1.479h-49.5a2.5 2.5 0 01-2.282-3.521l25.5-57zm3.902 3.52l-23.263 52h44.023l23.263-52H79.948z" fill="#434343"/><path fill-rule="evenodd" clip-rule="evenodd" d="M131.027 26.673a2.5 2.5 0 011.348 3.269l-19.344 46.482a2.5 2.5 0 01-2.308 1.54H65.106a2.5 2.5 0 010-5h43.949l18.703-44.943a2.5 2.5 0 013.269-1.348z" fill="#434343"/><path fill-rule="evenodd" clip-rule="evenodd" d="M54.815 46.517a2 2 0 01-2.828 0l-1.414-1.414-11.07-2.553a2 2 0 01-.965-.534L9.712 13.19a2 2 0 112.828-2.829l27.412 27.412 6.12-6.119L20.073 5.657l-1.646 1.645L39.86 28.734a2 2 0 01-2.829 2.828L14.186 8.716a2 2 0 010-2.828l4.473-4.474a2 2 0 012.829 0L50.314 30.24a2 2 0 01.535.965l2.552 11.07 1.414 1.414a2 2 0 010 2.828zm-5.901-5.902l-1.152-4.995-3.843 3.844 4.995 1.151z" fill="#F55E21"/><path fill-rule="evenodd" clip-rule="evenodd" d="M1.414 14a2 2 0 010-2.828l8.838-8.838a2 2 0 012.828 2.829l-7.423 7.423L30.882 37.81a2 2 0 01-2.829 2.828L1.414 14z" fill="#F55E21"/></svg>
